Papirus/22x22/panel/insync-partial-error.svg

<?xml version="1.0" encoding="UTF-8" standalone="no"?>
<svg xmlns:dc="http://purl.org/dc/elements/1.1/" xmlns:cc="http://creativecommons.org/ns#" xmlns:rdf="http://www.w3.org/1999/02/22-rdf-syntax-ns#" xmlns:svg="http://www.w3.org/2000/svg" xmlns="http://www.w3.org/2000/svg" id="svg2" viewBox="0 0 1624.0097 1624.0095" version="1.1" width="22" height="22" xml:space="preserve" style="clip-rule:evenodd;fill-rule:evenodd;image-rendering:optimizeQuality;shape-rendering:geometricPrecision;text-rendering:geometricPrecision">
    <metadata id="metadata18">
        <rdf:RDF>
            <cc:Work rdf:about="">
                <dc:format>
                    image/svg+xml
                </dc:format>
                <dc:type rdf:resource="http://purl.org/dc/dcmitype/StillImage"/>
                <dc:title/>
            </cc:Work>
        </rdf:RDF>
    </metadata>
    <defs id="defs4">
        <style id="style6" type="text/css">
            <![CDATA[
    .fil2 {fill:#11A861}
    .fil0 {fill:#3777E3}
    .fil1 {fill:#FFCF63}
   ]]>
        </style>
    </defs>
    <path id="path10" transform="scale(73.818621,73.818621)" d="M 8.5761719 3 L 14.292969 13.064453 L 19.736328 13.064453 L 14 3 L 8.5761719 3 z M 8.3808594 14.064453 L 5.5761719 19 L 17 19 L 19.705078 14.064453 L 8.3808594 14.064453 z " style="fill:#ffffff;fill-opacity:1;fill-rule:evenodd;opacity:1"/>
    <path d="m 569.34723,258.97374 -421.71,744.93996 200.4,360.9 424.89,-747.55996 -203.58,-358.28 z" id="path12" style="fill:#5294e2;fill-rule:evenodd;fill-opacity:1"/>
</svg>

<?xml version="1.0" encoding="UTF-8" standalone="no"?>
<svg id="svg2" xmlns:rdf="http://www.w3.org/1999/02/22-rdf-syntax-ns#" style="image-rendering:optimizeQuality;text-rendering:geometricPrecision;shape-rendering:geometricPrecision" xmlns="http://www.w3.org/2000/svg" fill-rule="evenodd" xml:space="preserve" viewBox="0 0 1624.0097 1624.0095" width="22" version="1.1" clip-rule="evenodd" xmlns:cc="http://creativecommons.org/ns#" height="22" xmlns:dc="http://purl.org/dc/elements/1.1/">
    <metadata id="metadata18">
        <rdf:RDF>
            <cc:Work rdf:about="">
                <dc:format>
                    image/svg+xml
                </dc:format>
                <dc:type rdf:resource="http://purl.org/dc/dcmitype/StillImage"/>
                <dc:title/>
            </cc:Work>
        </rdf:RDF>
    </metadata>
    <defs id="defs4">
        <style id="style6" type="text/css">
            <![CDATA[
    .fil2 {fill:#11A861}
    .fil0 {fill:#3777E3}
    .fil1 {fill:#FFCF63}
   ]]>
        </style>
    </defs>
    <path id="path10" d="m8.5762 3l5.7168 10.064h5.443l-5.736-10.064h-5.4238zm-0.1953 11.064l-2.8047 4.936h11.424l2.705-4.936h-11.324z" fill-rule="evenodd" transform="scale(73.819)" fill="#fff"/>
    <path id="path12" d="m569.35 258.97-421.71 744.94 200.4 360.9 424.89-747.56-203.58-358.28z" fill-rule="evenodd" fill="#5294e2"/>
</svg>
